X:64
T: ALS JUENGSTENS HERR MERCURIUS IM HIMMEL REFERIRTE
N: B0085
O: Europa, Mitteleuropa, Deutschland, Thueringen
R: Helden -, Ehren -, Gedaechtnis -, Kriegs - Lied
M: 2/4
L: 1/8
K: G
D | GGAA | BBc
c | BGAF | GGz
D | GGAA | BBc
c | BGAF | GGz
G | AAAA | BGG
B | AAAA | BGG
D | GGAA | BBz
c | BGAD | GGz

